X:112
T:Slater's Fancy. WCD3/6.112
A: England; London
O:
M:C|
L:1/8
Z:vmp.Peter Dunk.2011.from a transcription by Paul Dennant
B:John Walsh Jr. The Compleat Country Dancing Master.Vol 6 1756
Q:1/2=100
K:Gm
G2 d2 B2 AG|^F2 d2 A2 G F|G2 d2 d2 cd|edcB A2 G2:|
|:d=ede fgfd|cdcA c2 BA|G2 g2 g2 fg|a2 gf "^e# in MS"=e2 d2|
d=ede fgfd|cdcA ^F2 =ED|G2 d2 d2 cd edcB A2 G2:|

